32x32/apps/com.syntevo.SmartSynchronize.svg

<svg height="32" width="32" xmlns="http://www.w3.org/2000/svg"><rect height="28" opacity=".2" rx="1.4" width="28" x="2" y="3"/><rect fill="#f4f4f7" height="28" rx="1.4" width="28" x="2" y="2"/><path d="m7 8 10.717 8.6-10.717 8.4v-3.22l6.742-5.28-6.742-5.313zm18 2.69-7.283 5.91 7.283 5.776v-3.22l-3.276-2.656 3.276-2.656z" opacity=".1"/><path d="m7 7 10.717 8.6-10.717 8.4v-3.22l6.742-5.28-6.742-5.313zm18 2.69-7.283 5.91 7.283 5.776v-3.22l-3.276-2.656 3.276-2.656z" fill="#d87d00"/><path d="m3.4 2c-.775 0-1.4.625-1.4 1.4v1c0-.775.625-1.4 1.4-1.4h25.2c.775 0 1.4.625 1.4 1.4v-1c0-.775-.625-1.4-1.4-1.4z" fill="#f4f4f7" opacity=".2"/></svg>

<svg height="32" width="32" xmlns="http://www.w3.org/2000/svg">
    <rect height="28" opacity=".2" rx="1.4" width="28" x="2" y="3"/>
    <rect fill="#f4f4f7" height="28" rx="1.4" width="28" x="2" y="2"/>
    <path d="m7 8 10.717 8.6L7 25v-3.22l6.742-5.28L7 11.187zm18 2.69-7.283 5.91L25 22.376v-3.22L21.724 16.5 25 13.844z" opacity=".1"/>
    <path d="m7 7 10.717 8.6L7 24v-3.22l6.742-5.28L7 10.187zm18 2.69-7.283 5.91L25 21.376v-3.22L21.724 15.5 25 12.844z" fill="#d87d00"/>
    <path d="M3.4 2C2.625 2 2 2.625 2 3.4v1C2 3.625 2.625 3 3.4 3h25.2c.775 0 1.4.625 1.4 1.4v-1c0-.775-.625-1.4-1.4-1.4z" fill="#f4f4f7" opacity=".2"/>
</svg>
